X: 5
T: Sean Tiobrad Arann
R: jig
M: 6/8
L: 1/8
K: Gmaj
d |:cAF GAG | ABA G2 d | cAG GFG | ADE FGA |
AcF GAG | cAG g2 g | f2 d e2 d |[1 fdd cAd :|[2 fdd cAD ||
|: GB/c/d g2 g | f/g/af g3 | dgg d2 g | f/g/ag f2 a |
bag agf | gfe f2 e | dcA d2 e |[1 f2 d cAD :|[2 f2 d cAd |]


Tune 2599	Setting 2599

